src/devices/scalable/gnome-dev-media-sm.svg

<svg xmlns="http://www.w3.org/2000/svg" width="64" height="64" viewBox="0 0 16.933 16.933">
    <defs>
        <radialGradient id="b" cx="-179.96" cy="216.52" r="30.5" gradientTransform="matrix(.33353 0 0 .08877 91.102 262.59)" gradientUnits="userSpaceOnUse">
            <stop offset="0" stop-color="#8cbfd9"/>
            <stop offset="1" stop-color="#94bdd1"/>
        </radialGradient>
        <filter id="a" width="1.082" height="1.064" x="-.041" y="-.032" color-interpolation-filters="sRGB">
            <feGaussianBlur stdDeviation=".447"/>
        </filter>
    </defs>
    <g stroke-width="2.1" transform="translate(-6.101 -120.21) scale(.46875)">
        <path d="M19.501 258.11c-.862 0-1.556.694-1.556 1.556v30.226c0 .862.694 1.556 1.556 1.556h23.154c.862 0 1.556-.694 1.556-1.556v-28.104l-3.484-3.678z" filter="url(#a)" opacity=".25"/>
        <path fill="#666" d="M19.501 257.58c-.862 0-1.556.694-1.556 1.556v30.226c0 .862.694 1.556 1.556 1.556h23.154c.862 0 1.556-.694 1.556-1.556v-28.104l-3.484-3.678z"/>
        <rect width="21.124" height="12.947" x="20.516" y="261.66" fill="gray" opacity=".3" ry="2.034"/>
        <rect width="21.124" height="12.947" x="20.516" y="261.25" fill="#f1cd7f" stroke="#333" stroke-linecap="round" stroke-linejoin="round" stroke-width=".607" ry="2.034"/>
        <g fill="none" stroke="#000" stroke-linecap="round" stroke-linejoin="round" stroke-width=".404" opacity=".6">
            <path d="M20.837 269.307c2.141-1.454 4.942-1.892 7.425-1.162.578.17 1.137.399 1.692.632 1.92.804 3.861 1.673 5.935 1.843 1.338.11 2.7-.08 3.957-.554"/>
            <path d="M20.802 267.736a9.39 9.39 0 0 1 6.375-1.304c1.19.186 2.332.603 3.45 1.051 1.734.696 3.472 1.485 5.333 1.64a8.168 8.168 0 0 0 5.393-1.489"/>
            <path d="M22.455 265.36a7.525 7.525 0 0 1 3.6-.715c1.521.079 2.98.617 4.38 1.214 1.485.631 2.96 1.34 4.55 1.607a8.56 8.56 0 0 0 4.659-.53m-17.216-5.428v3.789m1.982-3.789v3.217m1.944-3.217v3.154m1.896-3.154v3.54m1.894-3.54v4.21m1.916-4.21v5.039m1.828-5.039v5.717m1.98-5.717v6.037m1.887-6.037v5.946m1.889-5.946v5.428m-17.122 1.479v3.863m1.905-4.391v6.071m1.951-6.139v6.14m1.825-5.839v5.838m1.912-5.101v5.101m1.895-4.317v4.317m1.959-3.665v3.665m1.897-3.32v3.32m1.918-3.374v3.374m2.063-3.891v3.891"/>
        </g>
        <g fill-rule="evenodd">
            <rect width="21.42" height="12.209" x="20.368" y="278.57" fill="#333" rx=".943" ry=".943"/>
            <rect width="20.345" height="11.356" x="20.905" y="279.13" fill="#e6e6e6" ry=".462"/>
            <path fill="url(#b)" d="M21.411 279.13c-.6 0-.503.43-.503.991v4.401h20.345v-4.4c0-.562.037-.992-.564-.992z"/>
            <path fill="#fff" d="m30.707 280.81.811 1.995-1.666-.001z"/>
        </g>
    </g>
</svg>

<svg width="64" height="64" viewBox="0 0 16.933 16.933" xmlns="http://www.w3.org/2000/svg"><defs><linearGradient id="b" x1="1456.9" x2="1460.4" y1="-810.5" y2="-811.9" gradientTransform="matrix(-2.732 0 0 2.732 4027.2 2244.5)" gradientUnits="userSpaceOnUse"><stop stop-color="#E7DDAF" offset="0"/><stop stop-color="#E7DDAF" stop-opacity="0" offset="1"/></linearGradient><linearGradient id="c" x1="1456.3" x2="1460" y1="-807.81" y2="-808.72" gradientTransform="matrix(-2.731 -.07716 -.07716 2.731 3970.8 2345.5)" gradientUnits="userSpaceOnUse"><stop stop-color="#EAC7AE" offset="0"/><stop stop-color="#EAC7AE" stop-opacity="0" offset="1"/></linearGradient><linearGradient id="d" x1="1459.9" x2="1462.9" y1="-808.34" y2="-810.66" gradientTransform="matrix(-2.732 0 0 2.732 4027.2 2244.5)" gradientUnits="userSpaceOnUse"><stop stop-color="#CAEFB9" offset="0"/><stop stop-color="#CAEFB9" stop-opacity="0" offset="1"/></linearGradient><linearGradient id="e" x1="1462.3" x2="1464.5" y1="-805.88" y2="-808.6" gradientTransform="matrix(-2.732 0 0 2.732 4027.2 2244.5)" gradientUnits="userSpaceOnUse"><stop stop-color="#B1E3DA" offset="0"/><stop stop-color="#B1E3DA" stop-opacity="0" offset="1"/></linearGradient><linearGradient id="f" x1="1463.3" x2="1462.4" y1="-803.87" y2="-801.14" gradientTransform="matrix(-2.732 0 0 2.732 4027.2 2244.5)" gradientUnits="userSpaceOnUse"><stop stop-color="#A5C5EE" offset="0"/><stop stop-color="#A5C5EE" stop-opacity="0" offset="1"/></linearGradient><filter id="a" x="-.147" y="-.166" width="1.295" height="1.331" color-interpolation-filters="sRGB"><feGaussianBlur stdDeviation="3.362"/></filter><filter id="g" x="-.041" y="-.032" width="1.082" height="1.064" color-interpolation-filters="sRGB"><feGaussianBlur stdDeviation=".447"/></filter><radialGradient id="h" cx="-179.96" cy="216.52" r="30.5" gradientTransform="matrix(.33353 0 0 .08877 91.102 262.59)" gradientUnits="userSpaceOnUse"><stop stop-color="#578fe0" offset="0"/><stop stop-color="#5082cd" offset="1"/></radialGradient></defs><g transform="translate(-6.101 -120.21) scale(.46875)" stroke-width="2.1"><path d="M19.501 258.11c-.862 0-1.556.694-1.556 1.556v30.226c0 .862.694 1.556 1.556 1.556h23.154c.862 0 1.556-.694 1.556-1.556v-28.104l-3.484-3.678z" filter="url(#g)" opacity=".25"/><path d="M19.501 257.58c-.862 0-1.556.694-1.556 1.556v30.226c0 .862.694 1.556 1.556 1.556h23.154c.862 0 1.556-.694 1.556-1.556v-28.104l-3.484-3.678z" fill="#4d4d4d"/><rect x="20.516" y="261.66" width="21.124" height="12.947" ry="2.034" fill="gray" opacity=".3"/><rect x="20.516" y="261.25" width="21.124" height="12.947" ry="2.034" fill="#e3bb75" stroke="#333" stroke-linecap="round" stroke-linejoin="round" stroke-width=".607"/><g fill="none" opacity=".6" stroke="#000" stroke-linecap="round" stroke-linejoin="round"><path d="M20.837 269.307c2.141-1.454 4.942-1.892 7.425-1.162.578.17 1.137.399 1.692.632 1.92.804 3.861 1.673 5.935 1.843 1.338.11 2.7-.08 3.957-.554" stroke-width=".404418"/><path d="M20.802 267.736a9.39 9.39 0 0 1 6.375-1.304c1.19.186 2.332.603 3.45 1.051 1.734.696 3.472 1.485 5.333 1.64a8.168 8.168 0 0 0 5.393-1.489" stroke-width=".404418"/><path d="M22.455 265.359a7.525 7.525 0 0 1 3.6-.715c1.521.079 2.98.617 4.38 1.214 1.485.631 2.96 1.34 4.55 1.607a8.56 8.56 0 0 0 4.659-.53M22.428 261.507v3.789M24.41 261.507v3.217M26.354 261.507v3.154M28.25 261.507v3.54M30.144 261.507v4.21M32.06 261.507v5.039M33.888 261.507v5.717M35.868 261.507v6.037M37.755 261.507v5.946M39.644 261.507v5.428M22.522 268.414v3.863M24.427 267.886v6.071M26.378 267.818v6.14M28.203 268.119v5.838M30.115 268.856v5.101M32.01 269.64v4.317M33.969 270.292v3.665M35.866 270.637v3.32M37.784 270.583v3.374M39.847 270.066v3.891" stroke-width=".404418"/></g><g fill-rule="evenodd"><rect x="20.368" y="278.57" width="21.42" height="12.209" rx=".943" ry=".943" fill="#1a1a1a"/><rect x="20.905" y="279.13" width="20.345" height="11.356" ry=".462" fill="#e6e6e6"/><path d="M21.411 279.13c-.6 0-.503.43-.503.991v4.401h20.345v-4.4c0-.562.037-.992-.564-.992z" fill="url(#h)"/><path d="m30.707 280.81.811 1.995-1.666-.001z" fill="#fff"/></g></g></svg>
